src/standard/office/shower.svg

<svg xmlns="http://www.w3.org/2000/svg" viewBox="0 0 36 36">
  <path d="M22 20.38a.61.61 0 0 0-.62.62v10a.62.62 0 0 0 1.24 0V21a.61.61 0 0 0-.62-.62Zm5 0a.61.61 0 0 0-.62.62v10a.62.62 0 0 0 1.24 0V21a.61.61 0 0 0-.62-.62Zm-10 0a.61.61 0 0 0-.62.62v10a.62.62 0 0 0 1.24 0V21a.61.61 0 0 0-.62-.62Z"/>
  <path d="M22 8.38h-.94a9.11 9.11 0 0 0-16.65 4.45.51.51 0 0 0 0 .17v18a.62.62 0 0 0 1.24 0V13.5a7.86 7.86 0 0 1 14.04-4.83A9.63 9.63 0 0 0 12.38 18a.61.61 0 0 0 .62.62h18a.61.61 0 0 0 .62-.62A9.62 9.62 0 0 0 22 8.38Zm-8.35 9a8.37 8.37 0 0 1 16.7 0Z"/>
</svg>

<svg id="ff0e7d02-bfac-4c75-8e65-6dd512b7e481" data-name="Icon" xmlns="http://www.w3.org/2000/svg" viewBox="0 0 36 36">
  <g>
    <path d="M22,20.38a.61.61,0,0,0-.62.62V31a.62.62,0,0,0,1.24,0V21A.61.61,0,0,0,22,20.38Z"/>
    <path d="M27,20.38a.61.61,0,0,0-.62.62V31a.62.62,0,0,0,1.24,0V21A.61.61,0,0,0,27,20.38Z"/>
    <path d="M17,20.38a.61.61,0,0,0-.62.62V31a.62.62,0,0,0,1.24,0V21A.61.61,0,0,0,17,20.38Z"/>
    <path d="M22,8.38c-.32,0-.63,0-.94,0A9.11,9.11,0,0,0,4.41,12.83a.51.51,0,0,0,0,.17V31a.62.62,0,0,0,1.24,0V13.5A7.86,7.86,0,0,1,19.69,8.67,9.63,9.63,0,0,0,12.38,18a.61.61,0,0,0,.62.62H31a.61.61,0,0,0,.62-.62A9.62,9.62,0,0,0,22,8.38Zm-8.35,9a8.37,8.37,0,0,1,16.7,0Z"/>
  </g>
</svg>
